assets/icons/clip-24.svg

<svg width="24" height="24" viewBox="0 0 24 24" fill="none" xmlns="http://www.w3.org/2000/svg">
<path fill-rule="evenodd" clip-rule="evenodd" d="M5 6C3.89543 6 3 6.89543 3 8V9.5H7.29957L8.5723 6H5ZM10.7004 6L9.4277 9.5H13.7996L15.0723 6H10.7004ZM17.2004 6L15.9277 9.5H21V8C21 6.89543 20.1046 6 19 6H17.2004ZM21 11.5H3V16C3 17.1046 3.89543 18 5 18H19C20.1046 18 21 17.1046 21 16V11.5ZM1 8C1 5.79086 2.79086 4 5 4H19C21.2091 4 23 5.79086 23 8V16C23 18.2091 21.2091 20 19 20H5C2.79086 20 1 18.2091 1 16V8Z" fill="#F2F2F2"/>
</svg>

<svg xmlns="http://www.w3.org/2000/svg" width="24" height="24" viewBox="0 0 24 24"><path fill-rule="evenodd" d="M5 6a2 2 0 00-2 2v1.5h4.3L8.572 6H5zm5.7 0L9.428 9.5H13.8L15.072 6H10.7zm6.5 0l-1.272 3.5H21V8a2 2 0 00-2-2h-1.8zm3.8 5.5H3V16a2 2 0 002 2h14a2 2 0 002-2v-4.5zM1 8a4 4 0 014-4h14a4 4 0 014 4v8a4 4 0 01-4 4H5a4 4 0 01-4-4V8z"/></svg>
